src/images/global/icons/nav/plus.svg

<?xml version="1.0" encoding="UTF-8"?>
<svg width="48px" height="48px" viewBox="0 0 48 48" version="1.1" xmlns="http://www.w3.org/2000/svg" xmlns:xlink="http://www.w3.org/1999/xlink">
    <!-- Generator: Sketch 46.2 (44496) - http://www.bohemiancoding.com/sketch -->
    <title>icon/Nav/plus</title>
    <desc>Created with Sketch.</desc>
    <defs>
        <path d="M14,12 L14,1.44444444 C14,0.646699806 13.5522847,0 13,0 C12.4477153,0 12,0.646699806 12,1.44444444 L12,12 L1.44444444,12 C0.646699806,12 0,12.4477153 0,13 C0,13.5522847 0.646699806,14 1.44444444,14 L12,14 L12,24.5555556 C12,25.3533002 12.4477153,26 13,26 C13.5522847,26 14,25.3533002 14,24.5555556 L14,14 L24.5555556,14 C25.3533002,14 26,13.5522847 26,13 C26,12.4477153 25.3533002,12 24.5555556,12 L14,12 Z" id="path-1"></path>
    </defs>
    <g id="Symbols" stroke="none" stroke-width="1" fill="none" fill-rule="evenodd">
        <g id="icon/Nav/plus">
            <g id="Icon" transform="translate(11.000000, 11.000000)">
                <mask id="mask-2" fill="white">
                    <use xlink:href="#path-1"></use>
                </mask>
                <use id="Mask" fill="#384048" fill-rule="nonzero" xlink:href="#path-1"></use>
                <g id="Color/Grayscale/Night-Sky" mask="url(#mask-2)" fill="#111111">
                    <g transform="translate(-11.000000, -11.000000)" id="Swatch">
                        <rect x="0" y="0" width="48" height="48"></rect>
                    </g>
                </g>
            </g>
        </g>
    </g>
</svg>

<?xml version="1.0" encoding="utf-8"?>
<!-- Generator: Adobe Illustrator 21.0.2, SVG Export Plug-In . SVG Version: 6.00 Build 0)  -->
<svg version="1.1" id="icon_x2F_Nav_x2F_plus-Layer_1" xmlns="http://www.w3.org/2000/svg" xmlns:xlink="http://www.w3.org/1999/xlink" x="0px" y="0px"
	 viewBox="0 0 48 48" style="enable-background:new 0 0 48 48;" xml:space="preserve">
<title>icon/Nav/plus</title>
<desc>Created with Sketch.</desc>
<g id="icon_x2F_Nav_x2F_plus-Symbols">
	<g id="icon_x2F_Nav_x2F_plus">
		<g id="icon_x2F_Nav_x2F_plus-Icon" transform="translate(11.000000, 11.000000)">
			<g id="icon_x2F_Nav_x2F_plus-Mask">
				<path id="icon_x2F_Nav_x2F_plus-path-1_1_" style="fill:#384048;" d="M14,12V1.4C14,0.6,13.6,0,13,0s-1,0.6-1,1.4V12H1.4C0.6,12,0,12.4,0,13
					s0.6,1,1.4,1H12v10.6c0,0.8,0.4,1.4,1,1.4s1-0.6,1-1.4V14h10.6c0.8,0,1.4-0.4,1.4-1s-0.6-1-1.4-1H14z"/>
			</g>
			<defs>
				<filter id="icon_x2F_Nav_x2F_plus-Adobe_OpacityMaskFilter" filterUnits="userSpaceOnUse" x="-11" y="-11" width="48" height="48">
					<feColorMatrix  type="matrix" values="1 0 0 0 0  0 1 0 0 0  0 0 1 0 0  0 0 0 1 0"/>
				</filter>
			</defs>
			<mask maskUnits="userSpaceOnUse" x="-11" y="-11" width="48" height="48" id="icon_x2F_Nav_x2F_plus-mask-2">
				<g style="filter:url(#icon_x2F_Nav_x2F_plus-Adobe_OpacityMaskFilter);">
					<path id="icon_x2F_Nav_x2F_plus-path-1" style="fill:#FFFFFF;" d="M14,12V1.4C14,0.6,13.6,0,13,0s-1,0.6-1,1.4V12H1.4C0.6,12,0,12.4,0,13s0.6,1,1.4,1
						H12v10.6c0,0.8,0.4,1.4,1,1.4s1-0.6,1-1.4V14h10.6c0.8,0,1.4-0.4,1.4-1s-0.6-1-1.4-1H14z"/>
				</g>
			</mask>
			<g id="icon_x2F_Nav_x2F_plus-Color_x2F_Grayscale_x2F_Night-Sky" style="mask:url(#icon_x2F_Nav_x2F_plus-mask-2);">
				<g id="icon_x2F_Nav_x2F_plus-Swatch" transform="translate(-11.000000, -11.000000)">
					<rect style="fill:#111111;" width="48" height="48"/>
				</g>
			</g>
		</g>
	</g>
</g>
</svg>
